images/reference/swift.svg

<?xml version="1.0" encoding="iso-8859-1"?>
<svg version="1.1" id="artwork" xmlns="http://www.w3.org/2000/svg" xmlns:xlink="http://www.w3.org/1999/xlink" x="0px" y="0px"
	 width="191.1856px" height="59.3911px" viewBox="0 0 191.1856 59.3911" enable-background="new 0 0 191.1856 59.3911"
	 xml:space="preserve">
<g>
	<g>
		<path fill="#F05138" d="M59.3867,16.4501c-0.0035-0.5973-0.0101-1.1943-0.0266-1.7923c-0.0348-1.3008-0.1117-2.6134-0.3429-3.9003
			c-0.2346-1.3069-0.6181-2.5221-1.2225-3.7093c-0.5933-1.1659-1.3689-2.2328-2.2941-3.158
			c-0.925-0.9252-1.9919-1.7007-3.1583-2.2943c-1.1862-0.6037-2.4016-0.9871-3.7073-1.2217
			c-1.2876-0.2319-2.6002-0.3083-3.902-0.3435c-0.5977-0.0162-1.1948-0.023-1.7923-0.0267C42.2315,0,41.5218,0,40.8128,0H25.0912
			h-6.5131c-0.7097,0-1.4186,0-2.1276,0.0041c-0.5977,0.0037-1.1955,0.0105-1.7923,0.0267
			c-0.3254,0.0088-0.6515,0.0202-0.9778,0.0359c-0.9788,0.0472-1.9591,0.1337-2.9243,0.3076
			c-0.9793,0.176-1.9079,0.4356-2.8113,0.8091C7.6437,1.3078,7.3453,1.445,7.0487,1.5959C6.1739,2.0411,5.3549,2.5886,4.61,3.2248
			c-0.2483,0.2121-0.4884,0.434-0.7196,0.6653c-0.9254,0.9252-1.701,1.9921-2.2943,3.158
			c-0.6044,1.1872-0.9874,2.4024-1.2222,3.7093c-0.231,1.2869-0.3078,2.5995-0.3428,3.9003
			c-0.0164,0.598-0.0233,1.195-0.0272,1.7923C-0.0006,17.1594,0,17.8689,0,18.5781V28.26v12.5525
			c0,0.7099-0.0007,1.4187,0.0039,2.1286c0.0039,0.5973,0.0108,1.1943,0.0272,1.7913c0.035,1.3015,0.1117,2.6144,0.3428,3.9007
			c0.2348,1.3065,0.6178,2.5228,1.2222,3.7097c0.5933,1.1662,1.3689,2.2328,2.2943,3.1576c0.9247,0.9256,1.9919,1.701,3.1584,2.295
			c1.1863,0.6038,2.4016,0.9867,3.7076,1.2213c1.2868,0.2316,2.6004,0.3086,3.9019,0.3434c0.5968,0.0159,1.1946,0.023,1.7923,0.0264
			c0.709,0.0051,1.4179,0.0044,2.1276,0.0044h22.2346c0.709,0,1.4187,0.0007,2.1278-0.0044
			c0.5975-0.0034,1.1946-0.0105,1.7923-0.0264c1.3018-0.0348,2.6144-0.1119,3.902-0.3434c1.3057-0.2346,2.5211-0.6176,3.7073-1.2213
			c1.1664-0.5939,2.2333-1.3694,3.1583-2.295c0.9252-0.9249,1.7009-1.9914,2.2941-3.1576c0.6044-1.1869,0.9879-2.4031,1.2225-3.7097
			c0.2312-1.2863,0.3081-2.5992,0.3429-3.9007c0.0164-0.597,0.023-1.1939,0.0266-1.7913c0.0046-0.7099,0.0042-1.4187,0.0042-2.1286
			V18.5781C59.3909,17.8689,59.3912,17.1594,59.3867,16.4501z"/>
		<path fill="#FFFFFF" d="M47.0606,36.6607c-0.0014-0.0018-0.0027-0.0031-0.0042-0.0048c0.0657-0.2236,0.1335-0.4458,0.191-0.675
			c2.465-9.8209-3.5511-21.4319-13.7316-27.5454c4.4613,6.0479,6.4339,13.3733,4.6813,19.7795
			c-0.1563,0.5714-0.3442,1.1198-0.5519,1.6528c-0.2254-0.1481-0.5094-0.3162-0.8908-0.5265c0,0-10.1269-6.2527-21.1028-17.3122
			c-0.288-0.2903,5.8528,8.777,12.8219,16.1399c-3.2834-1.8427-12.4338-8.5004-18.2266-13.8023
			c0.7117,1.1869,1.5582,2.3298,2.4887,3.4301c4.8375,6.1349,11.1462,13.7044,18.7043,19.5169
			c-5.3104,3.2498-12.8141,3.5025-20.2852,0.0034c-1.8479-0.866-3.5851-1.9109-5.1932-3.0981
			c3.1625,5.0585,8.0332,9.4229,13.9613,11.9708c7.0695,3.0381,14.0996,2.8321,19.3356,0.0498l-0.0041,0.006
			c0.0239-0.0151,0.0543-0.0316,0.0791-0.0469c0.215-0.1156,0.4284-0.2333,0.6371-0.3576
			c2.5157-1.3058,7.4847-2.6306,10.1518,2.5588C50.7755,49.6699,52.1635,42.9395,47.0606,36.6607z"/>
	</g>
</g>
<g id="XMLID_1_">
	<g>
		<path d="M81.9306,38.5423c0.464,4.1203,4.3938,6.8217,9.8514,6.8217c5.1854,0,8.9239-2.7014,8.9239-6.4393
			c0-3.2203-2.2648-5.186-7.4776-6.4953l-5.0484-1.2825c-7.259-1.8013-10.534-5.0764-10.534-10.4792
			c0-6.6585,5.8127-11.2709,14.0819-11.2709c8.0226,0,13.7263,4.6392,13.9175,11.3257h-5.3212
			c-0.4098-4.0935-3.7391-6.6049-8.7327-6.6049c-4.94,0-8.3783,2.5382-8.3783,6.2493c0,2.8926,2.129,4.6124,7.3686,5.9497
			l4.2025,1.0913c8.1323,1.9926,11.4615,5.158,11.4615,10.8617c0,7.259-5.7585,11.8166-14.9278,11.8166
			c-8.5141,0-14.3268-4.5308-14.7634-11.5437H81.9306z"/>
		<path d="M140.0488,49.4308h-5.3492l-6.2493-21.777h-0.109l-6.2219,21.777h-5.3486l-7.9142-28.5183h5.1848l5.5124,22.8963h0.1096
			l6.2219-22.8963h5.021l6.2767,22.8963h0.1096l5.5125-22.8963h5.13L140.0488,49.4308z"/>
		<path d="M151.3891,13.2442c0-1.7185,1.4195-3.1106,3.1387-3.1106c1.7466,0,3.1655,1.3921,3.1655,3.1106
			c0,1.7197-1.4189,3.1387-3.1655,3.1387C152.8086,16.3829,151.3891,14.964,151.3891,13.2442z M151.9353,20.9125h5.2122v28.5183
			h-5.2122V20.9125z"/>
		<path d="M191.1856,25.1156v-4.2032h-5.5125v-6.8217h-5.1854v6.8217h-4.2299h-5.7335v-2.5102
			c0.0268-2.5382,1.0096-3.6027,3.3567-3.6027c0.7636,0,1.5279,0.0828,2.1558,0.1912v-4.0935
			c-0.9281-0.1364-1.774-0.218-2.7562-0.218c-5.5673,0-7.9142,2.3202-7.9142,7.6414v2.5918h-3.9839v4.2032h3.9839v24.3151h5.1848
			V25.1156h5.7067h4.2299v16.8381c0,5.5125,2.1016,7.6402,7.5592,7.6402c1.1735,0,2.5108-0.0816,3.1113-0.218v-4.2567
			c-0.355,0.0548-1.3922,0.1364-1.9651,0.1364c-2.4286,0-3.5199-1.1461-3.5199-3.7111V25.1156H191.1856z"/>
	</g>
</g>
</svg>

<?xml version="1.0" encoding="UTF-8" standalone="no"?>
<svg
   version="1.1"
   id="artwork"
   x="0px"
   y="0px"
   width="59.390884"
   height="59.390934"
   viewBox="0 0 59.390887 59.390932"
   enable-background="new 0 0 191.1856 59.3911"
   xml:space="preserve"
   xmlns="http://www.w3.org/2000/svg"
   xmlns:svg="http://www.w3.org/2000/svg"><defs
   id="defs6" />
<g
   id="g3"
   transform="translate(3.8111111e-5)">
	<g
   id="g2">
		<path
   fill="#f05138"
   d="M 59.3867,16.4501 C 59.3832,15.8528 59.3766,15.2558 59.3601,14.6578 59.3253,13.357 59.2484,12.0444 59.0172,10.7575 58.7826,9.4506 58.3991,8.2354 57.7947,7.0482 57.2014,5.8823 56.4258,4.8154 55.5006,3.8902 54.5756,2.965 53.5087,2.1895 52.3423,1.5959 51.1561,0.9922 49.9407,0.6088 48.635,0.3742 47.3474,0.1423 46.0348,0.0659 44.733,0.0307 44.1353,0.0145 43.5382,0.0077 42.9407,0.004 42.2315,0 41.5218,0 40.8128,0 H 25.0912 18.5781 C 17.8684,0 17.1595,0 16.4505,0.0041 15.8528,0.0078 15.255,0.0146 14.6582,0.0308 14.3328,0.0396 14.0067,0.051 13.6804,0.0667 12.7016,0.1139 11.7213,0.2004 10.7561,0.3743 9.7768,0.5503 8.8482,0.8099 7.9448,1.1834 7.6437,1.3078 7.3453,1.445 7.0487,1.5959 6.1739,2.0411 5.3549,2.5886 4.61,3.2248 4.3617,3.4369 4.1216,3.6588 3.8904,3.8901 2.965,4.8153 2.1894,5.8822 1.5961,7.0481 0.9917,8.2353 0.6087,9.4505 0.3739,10.7574 0.1429,12.0443 0.0661,13.3569 0.0311,14.6577 0.0147,15.2557 0.0078,15.8527 0.0039,16.45 -6e-4,17.1594 0,17.8689 0,18.5781 V 28.26 40.8125 c 0,0.7099 -7e-4,1.4187 0.0039,2.1286 0.0039,0.5973 0.0108,1.1943 0.0272,1.7913 0.035,1.3015 0.1117,2.6144 0.3428,3.9007 0.2348,1.3065 0.6178,2.5228 1.2222,3.7097 0.5933,1.1662 1.3689,2.2328 2.2943,3.1576 0.9247,0.9256 1.9919,1.701 3.1584,2.295 1.1863,0.6038 2.4016,0.9867 3.7076,1.2213 1.2868,0.2316 2.6004,0.3086 3.9019,0.3434 0.5968,0.0159 1.1946,0.023 1.7923,0.0264 0.709,0.0051 1.4179,0.0044 2.1276,0.0044 h 22.2346 c 0.709,0 1.4187,7e-4 2.1278,-0.0044 0.5975,-0.0034 1.1946,-0.0105 1.7923,-0.0264 1.3018,-0.0348 2.6144,-0.1119 3.902,-0.3434 1.3057,-0.2346 2.5211,-0.6176 3.7073,-1.2213 1.1664,-0.5939 2.2333,-1.3694 3.1583,-2.295 0.9252,-0.9249 1.7009,-1.9914 2.2941,-3.1576 0.6044,-1.1869 0.9879,-2.4031 1.2225,-3.7097 0.2312,-1.2863 0.3081,-2.5992 0.3429,-3.9007 0.0164,-0.597 0.023,-1.1939 0.0266,-1.7913 0.0046,-0.7099 0.0042,-1.4187 0.0042,-2.1286 V 18.5781 c 1e-4,-0.7092 4e-4,-1.4187 -0.0041,-2.128 z"
   id="path1" />
		<path
   fill="#ffffff"
   d="m 47.0606,36.6607 c -0.0014,-0.0018 -0.0027,-0.0031 -0.0042,-0.0048 0.0657,-0.2236 0.1335,-0.4458 0.191,-0.675 C 49.7124,26.16 43.6963,14.549 33.5158,8.4355 c 4.4613,6.0479 6.4339,13.3733 4.6813,19.7795 -0.1563,0.5714 -0.3442,1.1198 -0.5519,1.6528 -0.2254,-0.1481 -0.5094,-0.3162 -0.8908,-0.5265 0,0 -10.1269,-6.2527 -21.1028,-17.3122 -0.288,-0.2903 5.8528,8.777 12.8219,16.1399 -3.2834,-1.8427 -12.4338,-8.5004 -18.2266,-13.8023 0.7117,1.1869 1.5582,2.3298 2.4887,3.4301 4.8375,6.1349 11.1462,13.7044 18.7043,19.5169 -5.3104,3.2498 -12.8141,3.5025 -20.2852,0.0034 -1.8479,-0.866 -3.5851,-1.9109 -5.1932,-3.0981 3.1625,5.0585 8.0332,9.4229 13.9613,11.9708 7.0695,3.0381 14.0996,2.8321 19.3356,0.0498 l -0.0041,0.006 c 0.0239,-0.0151 0.0543,-0.0316 0.0791,-0.0469 0.215,-0.1156 0.4284,-0.2333 0.6371,-0.3576 2.5157,-1.3058 7.4847,-2.6306 10.1518,2.5588 0.6532,1.27 2.0412,-5.4604 -3.0617,-11.7392 z"
   id="path2" />
	</g>
</g>

</svg>
